src/Resource_Files/fluent/insert-special-character.svg

<svg clip-rule="evenodd" fill-rule="evenodd" stroke-linejoin="round" stroke-miterlimit="2" viewBox="0 0 16 16" xmlns="http://www.w3.org/2000/svg"><g fill="#1abc9c"><path d="m31 21.224c0-.676-.485-1.224-1.083-1.224h-10.834c-.598 0-1.083.548-1.083 1.224s.485 1.224 1.083 1.224h10.834c.598 0 1.083-.548 1.083-1.224z" transform="matrix(-.461538 0 0 .408491 23.3077 5.83019)"/><path d="m31 21.224c0-.676-.485-1.224-1.083-1.224h-10.834c-.598 0-1.083.548-1.083 1.224s.485 1.224 1.083 1.224h10.834c.598 0 1.083-.548 1.083-1.224z" transform="matrix(-.461538 0 0 .408491 15.3077 5.83019)"/><path d="m31 21.224c0-.676-.91-1.224-2.031-1.224h-8.938c-1.121 0-2.031.548-2.031 1.224s.91 1.224 2.031 1.224h8.938c1.121 0 2.031-.548 2.031-1.224z" transform="matrix(0 .246154 .408491 0 -2.16981 7.36923)"/><path d="m31 21.224c0-.676-.91-1.224-2.031-1.224h-8.938c-1.121 0-2.031.548-2.031 1.224s.91 1.224 2.031 1.224h8.938c1.121 0 2.031-.548 2.031-1.224z" transform="matrix(0 .246154 .408491 0 .830189 7.36923)"/><path d="m7 12.917c-2.836-.477-5-2.946-5-5.917 0-3.311 2.689-6 6-6s6 2.689 6 6c0 2.971-2.164 5.44-5 5.917v-.63c0-.227.153-.425.373-.483 2.093-.593 3.627-2.521 3.627-4.804 0-2.76-2.24-5-5-5s-5 2.24-5 5c0 2.283 1.533 4.21 3.624 4.808.219.058.371.255.371.48.005.288.005.629.005.629z"/></g></svg>

<?xml version="1.0" encoding="UTF-8" standalone="no"?>
<!DOCTYPE svg PUBLIC "-//W3C//DTD SVG 1.1//EN" "http://www.w3.org/Graphics/SVG/1.1/DTD/svg11.dtd">
<svg width="100%" height="100%" viewBox="0 0 16 16" version="1.1" xmlns="http://www.w3.org/2000/svg" xmlns:xlink="http://www.w3.org/1999/xlink" xml:space="preserve" xmlns:serif="http://www.serif.com/" style="fill-rule:evenodd;clip-rule:evenodd;stroke-linejoin:round;stroke-miterlimit:2;">
    <g transform="matrix(-0.461538,-9.26335e-17,-3.05241e-17,0.408491,23.3077,5.83019)">
        <path d="M31,21.224C31,20.548 30.515,20 29.917,20L19.083,20C18.485,20 18,20.548 18,21.224C18,21.9 18.485,22.448 19.083,22.448L29.917,22.448C30.515,22.448 31,21.9 31,21.224Z" style="fill:rgb(0,189,156);"/>
    </g>
    <g transform="matrix(-0.461538,-9.26335e-17,-3.05241e-17,0.408491,15.3077,5.83019)">
        <path d="M31,21.224C31,20.548 30.515,20 29.917,20L19.083,20C18.485,20 18,20.548 18,21.224C18,21.9 18.485,22.448 19.083,22.448L29.917,22.448C30.515,22.448 31,21.9 31,21.224Z" style="fill:rgb(0,189,156);"/>
    </g>
    <g transform="matrix(-1.69195e-16,0.246154,0.408491,-1.21973e-16,-2.16981,7.36923)">
        <path d="M31,21.224C31,20.548 30.09,20 28.969,20L20.031,20C18.91,20 18,20.548 18,21.224C18,21.9 18.91,22.448 20.031,22.448L28.969,22.448C30.09,22.448 31,21.9 31,21.224Z" style="fill:rgb(0,189,156);"/>
    </g>
    <g transform="matrix(-1.69195e-16,0.246154,0.408491,-1.21973e-16,0.830189,7.36923)">
        <path d="M31,21.224C31,20.548 30.09,20 28.969,20L20.031,20C18.91,20 18,20.548 18,21.224C18,21.9 18.91,22.448 20.031,22.448L28.969,22.448C30.09,22.448 31,21.9 31,21.224Z" style="fill:rgb(0,189,156);"/>
    </g>
    <path d="M7,12.917C4.164,12.44 2,9.971 2,7C2,3.689 4.689,1 8,1C11.311,1 14,3.689 14,7C14,9.971 11.836,12.44 9,12.917L9,12.287C9,12.06 9.153,11.862 9.373,11.804C11.466,11.211 13,9.283 13,7C13,4.24 10.76,2 8,2C5.24,2 3,4.24 3,7C3,9.283 4.533,11.21 6.624,11.808C6.843,11.866 6.995,12.063 6.995,12.288C7,12.576 7,12.917 7,12.917Z" style="fill:rgb(0,189,156);"/>
</svg>
